X:1
T:Child Divine
T:Child Divine
T:John Frederick Bridge
T:Frederick Kill Harford, 1886
T:Public Domain Courtesy of the Cyber Hymnal™
T:Public Domain Courtesy of the Cyber Hymnal™
T:Public Domain Courtesy of the Cyber Hymnal™
C:John Frederick Bridge
Z:Public Domain
Z:Courtesy of the Cyber Hymnal™
%%score ( 1 2 ) ( 3 4 )
L:1/8
Q:1/4=85
M:6/8
K:A
V:1 treble 
V:2 treble 
V:3 bass 
V:4 bass 
V:1
!p! [CE]2 [CE] [^B,^D]2 [CE] | [^B,F]2 [B,G] [CF]2 [CE] | [DG]2 [DF] E2 E | %3
w: 1.~List! a- far! what|an- gel voic- es|Fall up- on the|
w: 2.~Born to heal what|sin hath brok- en—|Born its cap- tives|
w: 3.~Sing, ye hosts— tri-|umph- ant throng- ing|Round the Lamb en-|
!<(! (F>G)[=DA]!<)! [DB]3 |!>(! [Cc]2 [CE] [^B,^D]2!>)! [CE] | [^B,F]2 [B,G] [CF]2 [CE] | %6
w: win- * ter night!|Earth a- mid the|sound re- joic- es;|
w: to * re- lease—|Born— by proph- et|lips fore- spok- en—|
w: throned * in light.|Sing, O man— the|hymn pro- long- ing|
 [EB]2 [EA] [^DA]2 [EG] | [CG]2 [^DF] E3 |!f! E2 E E2 [EF] | [E=G]2 [EA] [^DB]2 [EG] | %10
w: Broods of E- vil|speed their flight.|List— for aye sweet|words of glad- ness|
w: Might- y God and|Prince of Peace;|When the pas- sions|rage in blind- ness,|
w: Through thy toils of|hour- ly fight.|Since what grace, what|name- less glo- ry|
!>(! =G2 G G2!>)! [GB] | [G=c]2 [=Fd] [Ee]3 | =c2 c B2!p! [EB] | B2 [FB] [GB]2 [EG] | %14
w: Through the ge- ne-|ra- tions roll,|Calm- ing ev- ery|mourn- er’s sad- ness:|
w: Thou their stor- my|waves canst still;|Turn- ing by Thy|spell of kind- ness|
w: Stooped to res- cue|sons of Earth;|Grate- ful spread the|won- drous sto- ry—|
!>(! =c2 c B2!>)! [EB] | B2 [FB] B3 |!pp! [Cc]2 [CE] [^B,D]2 [CE] | [^B,F]2 G [CF]2 [CE] | %18
w: “Christ is born— to|save thy soul.”|Child di- vine— what|pow’rs are round Thee!|
w: Hate and mal- ice|to good- will,|Child di- vine— who-|e’r hath known Thee|
w: Hail th’in- car- nate|Sav- ior’s birth.|Child di- vine, all|hearts that know Thee|
 [DG]2 [DF] E2 E |!<(! ([^DF]>[EG])[FA] [EB]3!<)! |!f! c2 G (A>B)[=Gc] | d2 A (B>^c)[Ad] | %22
w: Health to man Thy|pre- * sence brings;|Age by age * have|myr- iads found * Thee|
w: Hails the joy Thy|pre- * sence brings:|Thine through life— * in|death we own * Thee|
w: Know the strength Thy|pre- * sence brings—|Know what debt * of|love we owe * Thee,|
!ff! ([ce]>[Bd])[Ac] (B z/ [DG]) x/ |"^rall." [CA]3 A3 | [CA]6 |] %25
w: Lord * of lords *|and King|of|
w: Lord * of lords *|and King|of|
w: Lord * of lords *|and King|of|
V:2
 x6 | x6 | x3 E2 E | ^D2 x4 | x6 | x6 | x6 | x3 E3 | E2 E E2 x | x6 | =G2 G G2 x | x6 | %12
 =c2 c B2 x | (^D>E) x4 | =c2 c B2 x | (A>G) (E2 D) x | x6 | x6 | x3 E2 E | x6 | (^E>F)=G A2 x | %21
 (F>=G)A B2 x | x3 F3/2(FE/) | x3 (D>CD) | x6 |] %25
V:3
!p! [A,,A,]2 [A,,G,] [A,,F,]2 [A,,E,] | [A,,^D,]2 [A,,D,] [A,,E,]2 [A,,A,] | %2
 [D,A,]2 [D,A,] [C,A,]2 [=C,A,] | (A,>G,)[B,,F,] A,2 G, | [A,,A,]2 [A,,G,] [A,,F,]2 [A,,E,] | %5
 [A,,^D,]2 [A,,E,] [A,,E,]2 [A,,A,] | [C,G,]2 [=C,A,] [B,,B,]2 [B,,^C] | [B,,A,]2 [B,,B,] [E,G,]3 | %8
!f! E,2 E, E,2 [E,F,] | [E,=G,]2 [=C,E,] [B,,F,]2 [E,G,] | =G,2 G, G,2 [=F,D] | %11
 [E,=C]2 [D,B,] [=C,C]3 | [=C,=C]2 [C,C] [B,,B,]2 [B,,G,] | (F,>G,)[B,,A,] [E,B,]2 [E,B,] | %14
 [=C,=C]2 [C,C] [B,,B,]2 [B,,G,] | (C>B,)[B,,A,] [E,G,]3 |!pp! [A,,A,]2 [A,,G,] [A,,F,]2 [A,,E,] | %17
 [A,,^D,]2 [A,,D,] [A,,E,]2 [A,,A,] | [D,A,]2 [D,A,] [C,A,]2 [=C,A,] | (A,>G,)[B,,F,] A,2 G, | %20
!f! G,2 [^E,C] (C>B,)[=E,A,] | A,2 [F,D] [=G,D]2 [=F,A,] |!ff! (A,>B,)[E,C] (D>C)[E,B,] | %23
"^rall." A,2 G, (F,>E,F,) | [A,,E,]6 |] %25
V:4
 x6 | x6 | x6 | B,,2 E,3 x | x6 | x6 | x6 | x6 | E,2 E, E,2 x | x6 | =G,2 G, G,2 x | x6 | x6 | %13
 B,,2 x4 | x6 | B,,2 x4 | x6 | x6 | x6 | B,,2 E,3 x | (C,>^D,) F,2 x2 | (D,>E,) x4 | E,2 E,2 x2 | %23
 A,,3 A,,3 | x6 |] %25

